home/.icons/Gruvbox-Plus-Dark/apps/16/php.svg

<svg width="16" height="16" version="1.1" xmlns="http://www.w3.org/2000/svg">
  <defs>
    <style type="text/css" id="current-color-scheme">.ColorScheme-Text { color:#ebdbb2; } .ColorScheme-Highlight { color:#458588; }</style>
  </defs>
  <path class="ColorScheme-Text" fill="currentColor" d="m4.019 5.725h-2.806l-1.213 6.142h1.441l0.303-1.592h1.365c1.289 0.076 2.73-0.986 2.73-2.806 0-1.061-0.607-1.668-1.82-1.744zm-1.062 3.413h-0.91l0.38-2.275h0.985c0.531 0 0.91 0.227 0.91 0.682-0.076 1.289-0.682 1.517-1.365 1.593zm2.427 1.137 1.213-6.142h1.441l-0.304 1.592h1.365c1.214 0.076 1.669 0.683 1.517 1.441l-0.531 3.109h-1.517l0.531-2.806c0.076-0.379 0.076-0.606-0.455-0.606h-1.137l-0.683 3.412h-1.44zm8.796-4.55h-2.806l-1.213 6.142h1.441l0.303-1.592h1.365c1.289 0.076 2.73-0.986 2.73-2.806 0-1.061-0.607-1.668-1.82-1.744zm-1.062 3.413h-0.91l0.38-2.275h0.985c0.531 0 0.91 0.227 0.91 0.682-0.075 1.289-0.682 1.517-1.365 1.593z"/>
</svg>

<svg xmlns="http://www.w3.org/2000/svg" width="16" height="16" version="1.1">
 <defs>
  <style id="current-color-scheme" type="text/css">
   .ColorScheme-Text { color:#ebdbb2; } .ColorScheme-Highlight { color:#458588; }
  </style>
  <linearGradient id="arrongin" x1="0%" x2="0%" y1="0%" y2="100%">
   <stop id="stop3" offset="0%" style="stop-color:#d79921"/>
   <stop id="stop5" offset="100%" style="stop-color:#b57614"/>
  </linearGradient>
  <linearGradient id="aurora" x1="0%" x2="0%" y1="0%" y2="100%">
   <stop id="stop8" offset="0%" style="stop-color:#83a598"/>
   <stop id="stop10" offset="100%" style="stop-color:#b16286"/>
  </linearGradient>
  <linearGradient id="fitdance" x1="0%" x2="0%" y1="0%" y2="100%">
   <stop id="stop13" offset="0%" style="stop-color:#8ec07c"/>
   <stop id="stop15" offset="100%" style="stop-color:#458588"/>
  </linearGradient>
  <linearGradient id="oomox" x1="0%" x2="0%" y1="0%" y2="100%">
   <stop id="stop18" offset="0%" style="stop-color:#458588"/>
   <stop id="stop20" offset="100%" style="stop-color:#928374"/>
  </linearGradient>
  <linearGradient id="rainblue" x1="0%" x2="0%" y1="0%" y2="100%">
   <stop id="stop23" offset="0%" style="stop-color:#b8bb26"/>
   <stop id="stop25" offset="100%" style="stop-color:#076678"/>
  </linearGradient>
  <linearGradient id="sunrise" x1="0%" x2="0%" y1="0%" y2="100%">
   <stop id="stop28" offset="0%" style="stop-color:#fe8019"/>
   <stop id="stop30" offset="100%" style="stop-color:#fabd2f"/>
  </linearGradient>
  <linearGradient id="telinkrin" x1="0%" x2="0%" y1="0%" y2="100%">
   <stop id="stop33" offset="0%" style="stop-color:#83a598"/>
   <stop id="stop35" offset="100%" style="stop-color:#83a598"/>
  </linearGradient>
  <linearGradient id="60spsycho" x1="0%" x2="0%" y1="0%" y2="100%">
   <stop id="stop38" offset="0%" style="stop-color:#fb4934"/>
   <stop id="stop40" offset="25%" style="stop-color:#fabd2f"/>
   <stop id="stop42" offset="50%" style="stop-color:#fe8019"/>
   <stop id="stop44" offset="100%" style="stop-color:#689d6a"/>
  </linearGradient>
  <linearGradient id="90ssummer" x1="0%" x2="0%" y1="0%" y2="100%">
   <stop id="stop47" offset="0%" style="stop-color:#b16286"/>
   <stop id="stop49" offset="20%" style="stop-color:#8ec07c"/>
   <stop id="stop51" offset="50%" style="stop-color:#fabd2f"/>
   <stop id="stop53" offset="100%" style="stop-color:#458588"/>
  </linearGradient>
  <linearGradient id="cyberneon" x1="0%" x2="0%" y1="0%" y2="100%">
   <stop id="stop56" offset="0" style="stop-color:#83a598"/>
   <stop id="stop58" offset="1" style="stop-color:#b16286"/>
  </linearGradient>
 </defs>
 <path fill="currentColor" class="ColorScheme-Text" d="M 4.019,5.725 H 1.213 L 0,11.867 h 1.441 l 0.303,-1.592 h 1.365 c 1.289,0.076 2.73,-0.986 2.73,-2.806 0,-1.061 -0.607,-1.668 -1.82,-1.744 z M 2.957,9.138 h -0.91 l 0.38,-2.275 h 0.985 c 0.531,0 0.91,0.227 0.91,0.682 C 4.246,8.834 3.64,9.062 2.957,9.138 Z M 5.384,10.275 6.597,4.133 H 8.038 L 7.734,5.725 h 1.365 c 1.214,0.076 1.669,0.683 1.517,1.441 l -0.531,3.109 H 8.568 L 9.099,7.469 C 9.175,7.09 9.175,6.863 8.644,6.863 H 7.507 l -0.683,3.412 z m 8.796,-4.55 h -2.806 l -1.213,6.142 h 1.441 l 0.303,-1.592 H 13.27 C 14.559,10.351 16,9.289 16,7.469 16,6.408 15.393,5.801 14.18,5.725 Z m -1.062,3.413 h -0.91 l 0.38,-2.275 h 0.985 c 0.531,0 0.91,0.227 0.91,0.682 -0.075,1.289 -0.682,1.517 -1.365,1.593 z"/>
</svg>
